X: 1
T: Konvulsionsl\aaten
C: Anders (Stake) Norudde
R: snoa, march
S: http://www.nyckelharpa.org/archive/written-music/american-allspel-list/ 2022/10/2
Z: 2022 John Chambers <jc:trillian.mit.edu>
M: 2/3
L: 1/16
Q: 1/4=80
K: Ddor
|:\
DEFD E2ED- | DEFD E2E2 | DEFG A2GF | EFE2 D3D :|
|:\
cAcA c2AB- | BGBG B2Gc- | cAcd- dcB2 | ABcd- dddd |
dcBA AF2c | cBAG- GE2E | DEFG A2GF | EFE2 D4 :|
